images/articles/missing.svg

<?xml version="1.0" encoding="UTF-8" standalone="no"?>
<svg
   xml:space="preserve"
   viewBox="0 0 297 110"
   version="1.1"
   id="svg788"
   sodipodi:docname="missing.svg"
   inkscape:version="1.2.1 (9c6d41e4, 2022-07-14)"
   width="297"
   height="110"
   xmlns:inkscape="http://www.inkscape.org/namespaces/inkscape"
   xmlns:sodipodi="http://sodipodi.sourceforge.net/DTD/sodipodi-0.dtd"
   xmlns="http://www.w3.org/2000/svg"
   xmlns:svg="http://www.w3.org/2000/svg"><sodipodi:namedview
   id="namedview790"
   pagecolor="#ffffff"
   bordercolor="#000000"
   borderopacity="0.25"
   inkscape:showpageshadow="2"
   inkscape:pageopacity="0.0"
   inkscape:pagecheckerboard="0"
   inkscape:deskcolor="#d1d1d1"
   showgrid="false"
   inkscape:zoom="2.2236824"
   inkscape:cx="149.7516"
   inkscape:cy="62.958632"
   inkscape:window-width="1534"
   inkscape:window-height="672"
   inkscape:window-x="7"
   inkscape:window-y="83"
   inkscape:window-maximized="0"
   inkscape:current-layer="svg788"
   showguides="true" />
  <defs
   id="defs704">
    <path
   id="a"
   fill="#ffcc00"
   stroke="#000000"
   stroke-linecap="round"
   stroke-linejoin="round"
   stroke-width="3"
   d="m 152.698,77.138 c -3.02,-0.689 -5.837,-1.58 -11.284,0.157 l -42.712,18.967 -4.93,2.19 c -4.277,2.041 -5.957,5.858 -5.942,11.125 l 0.144,51.562 c 0.342,4.71 1.814,7.156 5.485,8.62 l 49.523,23.507 c 6.137,1.445 6.397,1.106 12.067,-0.784 l 45.95,-22.975 c 4.913,-2.26 4.827,-5.457 4.853,-10.246 l 0.27,-49.368 c 0.198,-4.615 -2.197,-8.902 -6.368,-10.9 z" />
      <path
   id="b"
   fill="none"
   stroke="#000000"
   stroke-linecap="round"
   stroke-linejoin="round"
   stroke-width="1.5"
   d="m 87.036,110.25 c 2.314,-6.541 5.533,-6.663 9.283,-5.341 l 42.476,19.023 c 7.021,3.612 13.433,3.546 19.246,-0.034 l 41.673,-19.178 c 2.698,-1.225 5.859,-0.969 6.737,1.612" />
      <path
   id="c"
   fill="#ffffff"
   d="m 200.142,107.392 c 4.863,-2.322 5.642,1.532 5.642,5.015 v 49.053 c 0,3.472 -1.864,6.532 -5.015,7.992 l -47.015,21.784 c -3.151,1.46 -4.881,-2.953 -4.858,-6.425 l 0.313,-47.172 c 0.023,-3.473 2.508,-7.123 5.642,-8.62 z"
   opacity="0.587" />
      <path
   id="d"
   fill="#e89f9f"
   stroke="#000000"
   stroke-linecap="round"
   stroke-linejoin="round"
   stroke-width="3"
   d="m 136.97,36.502 c 1.435,4.56 1.584,9.621 6.372,11.666 6.25,1.076 11.377,-1.059 18.215,-2.843 l 3.412,-5.529 -2.235,-6.235 c 0,0 -4.706,-4.941 -6.235,-4.941 -1.53,0 -8.823,0.706 -8.823,0.706 l -4.941,2.588 z" />
      <path
   id="e"
   fill="#c10000"
   stroke="#000000"
   stroke-linecap="round"
   stroke-linejoin="round"
   stroke-width="3"
   d="m 133.395,46.362 6.592,-1.81 c 1.9,-0.453 3.243,0.225 4.473,2.234 5.546,10.408 12.422,23.704 15.344,31.48 0.732,2.064 0.505,3.669 -0.464,4.017 l -9.297,2.205 z" />
      <path
   id="f"
   fill="#ff0000"
   stroke="#000000"
   stroke-linecap="round"
   stroke-linejoin="round"
   stroke-width="3"
   d="m 137.128,50.429 c -2.375,-5.618 -3.994,-4.012 -6.036,-3.018 l -23.087,17.353 c -2.174,2.41 -2.76,4.265 -1.807,5.58 6.643,3.498 28.085,9.95 41.695,13.858 7.3,1.709 2.571,-5.85 1.045,-9.045 z" />
      <path
   id="g"
   fill="#ffd5d5"
   stroke="#000000"
   stroke-linecap="round"
   stroke-linejoin="round"
   stroke-width="3"
   d="m 192.027,13.326 -27.274,0.234 c -10.55,-1.58 -20.245,2.233 -29.068,6.029 -5.516,1.864 -7.92,3.825 -11.5,7.785 -4.818,5.346 -9.098,11.32 -11.25,18.052 -1.259,3.837 -1.773,7.109 1.705,9.828 1.465,1.107 3.143,1.023 5.027,-0.092 7.228,-5.759 11.998,-8.585 15.891,-16.66 21.151,-11.26 34.169,-0.298 18.118,13.898 -14.715,11.043 -0.986,27.48 11.85,15.182 l 9.325,-11.434 c 5.731,-1.27 16.42,-5.387 19.283,-9.426 2.14,-3.195 5.846,-4.111 10.716,-3.985 z" />
      <path
   id="h"
   fill="none"
   stroke="#000000"
   stroke-linecap="round"
   stroke-linejoin="round"
   stroke-width="0.912"
   d="m 146.97,35.56 c 2.819,5.197 7.78,4.642 13.176,3.648" />
      <path
   id="i"
   fill="#ffffff"
   stroke="#000000"
   stroke-linecap="round"
   stroke-linejoin="round"
   stroke-width="2"
   d="m 156.904,59.055 c -0.546,0.005 -1.108,0.193 -1.7,0.74 l -2.117,2.824 c -0.795,2.842 1.52,4.683 3.412,6.352 1.294,0.795 2.588,0.53 3.882,-0.235 l 2.47,-2.117 c 0.223,-0.375 0.346,-0.727 0.401,-1.064 0.466,-3.163 -4.39,-6.419 -6.348,-6.5 z" />
      <path
   id="j"
   fill="none"
   stroke="#000000"
   stroke-linecap="round"
   stroke-linejoin="round"
   stroke-width="0.912"
   d="m 164.063,55.446 2.226,2.264" />
      <path
   id="k"
   stroke="#000000"
   stroke-linecap="round"
   stroke-linejoin="round"
   stroke-width="1.364"
   d="m 148.264,97.594 a 24.759,12.928 0 0 0 -24.498,11.074 27.222,14.214 0 0 0 23.839,7.367 27.222,14.214 0 0 0 24.804,-8.37 24.759,12.928 0 0 0 -24.145,-10.071 z" />
      <path
   id="l"
   fill="#a68500"
   stroke="#000000"
   stroke-linecap="round"
   stroke-linejoin="round"
   stroke-width="2.4"
   d="m 178.137,134.113 c 1.626,-2.415 2.501,-7.625 6.322,-1.859 l 10.572,16.237 c 1.915,2.985 6.474,9.013 -0.615,11.6 l -28.55,12.694 c -4.09,1.434 -5.964,0.494 -4.09,-4.462 z" />
      <path
   id="m"
   stroke="#000000"
   stroke-linecap="round"
   stroke-width="2.4"
   d="m 178.137,134.113 c 1.626,-2.415 2.501,-7.625 6.322,-1.859 l 12.002,19.098 -33.2,14.35 z" />
      <path
   id="n"
   d="m 94.615,106.536 c -4.863,-2.322 -5.642,1.532 -5.642,5.015 v 49.053 c 0,3.472 1.864,6.532 5.015,7.992 l 47.015,21.784 c 3.151,1.46 4.881,-2.953 4.858,-6.426 l -0.313,-47.171 c -0.023,-3.473 -2.508,-7.124 -5.642,-8.62 z"
   opacity="0.093" />
      <path
   id="o"
   fill="#c10000"
   stroke="#000000"
   stroke-linecap="round"
   stroke-linejoin="round"
   stroke-width="2.4"
   d="m 118.902,131.995 a 1.26,1.26 0 0 0 -0.504,0.126 l -3.885,0.921 0.855,2.84 -9.062,14.417 c -1.614,2.516 -4.251,5.186 1.724,7.366 l 20.652,9.183 -0.225,0.068 2,3.014 4.271,-1.06 c 1.49,-0.115 1.904,-1.386 0.815,-4.266 l -13.791,-28.836 c -0.92,-1.367 -1.556,-3.799 -2.85,-3.773 z" />
      <path
   id="p"
   fill="#ff0000"
   stroke="#000000"
   stroke-linecap="round"
   stroke-linejoin="round"
   stroke-width="2.4"
   d="m 117.437,136.847 c -1.37,-2.035 -2.108,-6.427 -5.329,-1.567 l -10.117,16.098 c -1.614,2.516 -4.252,5.186 1.724,7.366 l 24.065,10.7 c 3.447,1.209 5.027,0.417 3.448,-3.76 z" />
      <path
   id="q"
   fill="#ffffff"
   d="m 159.614,12.937 c -8.675,-0.022 -16.74,3.193 -24.185,6.396 -5.516,1.864 -7.92,3.825 -11.5,7.786 -4.818,5.346 -9.098,11.319 -11.25,18.052 -1.258,3.836 -1.773,7.108 1.705,9.827 0.77,0.581 1.597,0.832 2.482,0.78 -2.825,-2.618 -2.3,-5.724 -1.118,-9.328 2.153,-6.733 6.433,-12.706 11.252,-18.052 3.58,-3.96 5.983,-5.922 11.499,-7.786 8.823,-3.796 18.518,-7.61 29.068,-6.03 l 24.771,-0.211 -0.567,-1.3 -27.274,0.233 a 33.493,33.493 0 0 0 -4.883,-0.367 z m -1.832,22.332 c 4.47,2.952 4.008,9.473 -4.361,16.876 -10.172,7.633 -6.752,17.84 0.569,19.357 -4.981,-3.323 -6.104,-11.621 2.5,-18.078 9.964,-8.813 8.724,-16.377 1.292,-18.155 z"
   opacity="0.702" />
      <path
   id="r"
   fill="#aa0000"
   d="m 150.497,32.829 c -4.196,0.074 -9.502,1.483 -15.45,4.65 -3.893,8.075 -8.664,10.9 -15.891,16.66 -1.884,1.115 -3.563,1.2 -5.028,0.092 -0.792,-0.62 -1.375,-1.268 -1.792,-1.945 0.248,1.442 1,2.773 2.56,3.992 1.465,1.107 3.143,1.023 5.027,-0.092 7.228,-5.76 11.998,-8.586 15.891,-16.66 12.143,-6.465 21.602,-5.604 24.422,-1.013 -0.62,-3.564 -4.218,-5.781 -9.74,-5.684 z m 52.942,8.874 c -4.428,0.008 -7.81,1.001 -9.817,3.996 -2.863,4.039 -13.551,8.156 -19.283,9.426 l -9.325,11.434 c -7.134,6.835 -14.542,4.792 -17.19,-0.266 1.538,6.45 9.923,10.01 17.958,2.312 l 9.325,-11.433 c 5.73,-1.27 16.42,-5.388 19.283,-9.427 2.14,-3.194 5.846,-4.111 10.716,-3.984 l -0.893,-2.049 a 32.13,32.13 0 0 0 -0.774,-0.01 z"
   opacity="0.249" />
  
    
        
        
        
        
        
        
        
        
        
        
        
        
        
        
        
        
        
        
        
        
        
        
        
        
        
        
        
        
        
        
        
        
        
        
        
        
        
        
        
  </defs>
    <rect
   width="296.43402"
   height="109.81107"
   x="0.63679743"
   y="0.094097972"
   fill="#99f5fa"
   rx="0"
   ry="0"
   id="rect746"
   style="stroke-width:0.735763;paint-order:stroke fill markers" />
<path
   id="path21005"
   style="opacity:1;fill:none;fill-opacity:1;stroke:#ffffff;stroke-width:1.812;stroke-linecap:round;stroke-dasharray:none;stroke-dashoffset:0;paint-order:stroke fill markers"
   d="m 152.90039,65.65625 a 16.638926,16.638926 0 0 0 -16.39844,13.941406 h 3.89844 a 12.822658,12.822658 0 0 1 12.5,-10.125 12.822658,12.822658 0 0 1 12.53125,10.125 h 3.88281 A 16.638926,16.638926 0 0 0 152.90039,65.65625 Z m 30.55536,-14.839638 a 11.242611,11.242611 0 0 1 -11.24262,11.242611 11.242611,11.242611 0 0 1 -11.24261,-11.242611 11.242611,11.242611 0 0 1 11.24261,-11.242611 11.242611,11.242611 0 0 1 11.24262,11.242611 z m -40,0 A 11.242611,11.242611 0 0 1 132.21313,62.059223 11.242611,11.242611 0 0 1 120.97052,50.816612 11.242611,11.242611 0 0 1 132.21313,39.574001 11.242611,11.242611 0 0 1 143.45575,50.816612 Z M 153.34961,6.2949219 A 49.017792,49.017792 0 0 0 104.33203,55.314453 49.017792,49.017792 0 0 0 153.34961,104.33203 49.017792,49.017792 0 0 0 202.36719,55.314453 49.017792,49.017792 0 0 0 153.34961,6.2949219 Z m 0,11.2441401 A 37.775177,37.775177 0 0 1 191.125,55.314453 37.775177,37.775177 0 0 1 153.34961,93.087891 37.775177,37.775177 0 0 1 115.57422,55.314453 37.775177,37.775177 0 0 1 153.34961,17.539062 Z" /></svg>

<svg xmlns="http://www.w3.org/2000/svg" xml:space="preserve" viewBox="0 0 297 110">
  <rect width="296.434" height="109.811" x=".637" y=".094" fill="#99f5fa" paint-order="stroke fill markers" rx="0" ry="0"/>
  <path fill="none" stroke="#fff" stroke-linecap="round" stroke-width="1.812" d="M152.9 65.656a16.639 16.639 0 0 0-16.398 13.942h3.898a12.823 12.823 0 0 1 12.5-10.125 12.823 12.823 0 0 1 12.532 10.125h3.882A16.639 16.639 0 0 0 152.9 65.656Zm30.556-14.84a11.243 11.243 0 0 1-11.243 11.243 11.243 11.243 0 0 1-11.242-11.242 11.243 11.243 0 0 1 11.242-11.243 11.243 11.243 0 0 1 11.243 11.243zm-40 0a11.243 11.243 0 0 1-11.243 11.243 11.243 11.243 0 0 1-11.242-11.242 11.243 11.243 0 0 1 11.242-11.243 11.243 11.243 0 0 1 11.243 11.243Zm9.894-44.521a49.018 49.018 0 0 0-49.018 49.02 49.018 49.018 0 0 0 49.018 49.017 49.018 49.018 0 0 0 49.017-49.018 49.018 49.018 0 0 0-49.017-49.02Zm0 11.244a37.775 37.775 0 0 1 37.775 37.775 37.775 37.775 0 0 1-37.775 37.774 37.775 37.775 0 0 1-37.776-37.774A37.775 37.775 0 0 1 153.35 17.54Z" paint-order="stroke fill markers"/>
</svg>
